Papirus/32x32/apps/heroic.svg

<svg width="32" height="32" version="1.1" xmlns="http://www.w3.org/2000/svg">
 <path d="m18.000004 3.5c-0.499723-0.203125-1.500276-0.5-2-0.5-0.499723 0-1.500276 0.296875-2 0.5l-7.9999997 3c-0.5738595 0.230575-1.0000083 0.538081-1.0000043 1 4.3e-6 0.5 0.1149883 0.746413 0.2498618 1.25l4.7501422 16.75s0.202178 0.58048 0.5 1c0.272834 0.38432 1 1 1 1l3.5 3s0.627528 0.5 1 0.5 1-0.5 1-0.5l3.5-3s0.716149-0.623754 1-1c0.29587-0.392176 0.5-1 0.5-1l4.75-16.75c0.158535-0.495094 0.25-0.75 0.25-1.25 0-0.442059-0.320019-0.7565695-1-1z" style="opacity:.2"/>
 <path d="m18.000004 2.5c-0.499723-0.203125-1.500276-0.5-2-0.5-0.499723 0-1.500276 0.296875-2 0.5l-7.9999997 3c-0.5738595 0.230575-1.0000083 0.538081-1.0000043 1 4.3e-6 0.5 0.1149883 0.746413 0.2498618 1.25l4.7501422 16.75s0.202178 0.58048 0.5 1c0.272834 0.38432 1 1 1 1l3.5 3s0.627528 0.5 1 0.5 1-0.5 1-0.5l3.5-3s0.716149-0.623754 1-1c0.29587-0.392176 0.5-1 0.5-1l4.75-16.75c0.158535-0.495094 0.25-0.75 0.25-1.25 0-0.442059-0.320019-0.7565695-1-1z" style="fill:#50beee"/>
 <path d="m16 7-1.999996 3 1.249996 12.25 0.75 0.75 0.75-0.75 1.250004-12.25zm-3.5 16-0.5 1 0.5 1 2.500004-0.25 0.5-0.75-0.5-0.75zm7 0-2.499996 0.25-0.5 0.75 0.5 0.75 2.499996 0.25 0.5-1zm-3.5 2-0.75 0.75-0.25 2.25 1.000004 0.5 0.999996-0.5-0.25-2.25z" style="opacity:.2"/>
 <path d="m16 6-1.999996 3 1.249996 12.25 0.75 0.75 0.75-0.75 1.250004-12.25zm-3.5 16-0.5 1 0.5 1 2.500004-0.25 0.5-0.75-0.5-0.75zm7 0-2.499996 0.25-0.5 0.75 0.5 0.75 2.499996 0.25 0.5-1zm-3.5 2-0.75 0.75-0.25 2.25 1.000004 0.5 0.999996-0.5-0.25-2.25z" style="fill:#4f4f4f"/>
 <path transform="translate(-16,-15)" d="m 32,21 -1.999996,3 0.08849,0.867257 L 32,22 33.911508,24.867256 34,24 Z M 28.5,37 28,38 28.25,38.5 28.5,38 H 31 l 0.166671,0.5 0.333333,-0.5 -0.5,-0.75 z m 7,0 -2.499996,0.25 -0.5,0.75 0.333333,0.5 L 33,38 h 2.5 L 35.75,38.5 36,38 Z M 32,39 31.25,39.75 31,42 31.105263,42.052631 31.25,40.75 32,40 32.75,40.75 32.894737,42.052632 33,42 32.75,39.75 Z" style="fill:#ffffff;opacity:.2"/>
 <path d="m26.000004 6.5-8-3c-0.499723-0.203125-1.500276-0.5-2-0.5-0.499723 0-1.500276 0.296875-2 0.5l-7.9999997 3c-0.6042803 0.2528672-0.7316478 0.6810434-0.7501425 1.25-0.1348735-0.503587-0.2498575-0.75-0.2498618-1.25-4e-6 -0.461919 0.4261448-0.769425 1.0000043-1l7.9999997-3c0.499724-0.203125 1.500277-0.5 2-0.5 0.499724 0 1.500277 0.296875 2 0.5l8 3c0.679981 0.2434305 1 0.557941 1 1 0 0.5-0.09146 0.754906-0.25 1.25 0-0.5517623-0.05098-0.9693793-0.75-1.25z" style="fill:#ffffff;opacity:.2"/>
</svg>

<svg xmlns="http://www.w3.org/2000/svg" width="32" height="32" version="1.1">
 <path style="opacity:0.2" d="M 18,3.5 C 17.5,3.2969 16.5,3 16,3 15.5,3 14.5,3.2969 14,3.5 L 6,6.5 C 5.4261,6.7306 5,7.0381 5,7.5 5,8 5.115,8.2464 5.2499,8.75 L 10,25.5 C 10,25.5 10.202,26.08 10.5,26.5 10.773,26.884 11.5,27.5 11.5,27.5 L 15,30.5 C 15,30.5 15.628,31 16,31 16.372,31 17,30.5 17,30.5 L 20.5,27.5 C 20.5,27.5 21.216,26.876 21.5,26.5 21.796,26.108 22,25.5 22,25.5 L 26.75,8.75 C 26.909,8.2549 27,8 27,7.5 27,7.0579 26.68,6.7434 26,6.5 Z"/>
 <path style="fill:#50beee" d="M 18,2.5 C 17.5,2.2969 16.5,2 16,2 15.5,2 14.5,2.2969 14,2.5 L 6,5.5 C 5.4261,5.7306 5,6.0381 5,6.5 5,7 5.115,7.2464 5.2499,7.75 L 10,24.5 C 10,24.5 10.202,25.08 10.5,25.5 10.773,25.884 11.5,26.5 11.5,26.5 L 15,29.5 C 15,29.5 15.628,30 16,30 16.372,30 17,29.5 17,29.5 L 20.5,26.5 C 20.5,26.5 21.216,25.876 21.5,25.5 21.796,25.108 22,24.5 22,24.5 L 26.75,7.75 C 26.909,7.2549 27,7 27,6.5 27,6.0579 26.68,5.7434 26,5.5 Z"/>
 <path style="fill:#ffffff;opacity:0.2" d="M 16 2 C 15.5 2 14.5 2.2969 14 2.5 L 6 5.5 C 5.4261 5.7306 5 6.0381 5 6.5 C 5 6.7671 5.0348 6.9658 5.0859 7.166 C 5.2372 6.882 5.5775 6.6698 6 6.5 L 14 3.5 C 14.5 3.2969 15.5 3 16 3 C 16.5 3 17.5 3.2969 18 3.5 L 26 6.5 C 26.495 6.677 26.797 6.8921 26.926 7.166 C 26.974 6.9651 27 6.7668 27 6.5 C 27 6.0579 26.68 5.7434 26 5.5 L 18 2.5 C 17.5 2.2969 16.5 2 16 2 z"/>
 <path style="opacity:0.2" d="M 16,7 14,10 15.25,22.25 16,23 16.75,22.25 18,10 Z M 12.5,23 12,24 12.5,25 15,24.75 15.5,24 15,23.25 Z M 19.5,23 17,23.25 16.5,24 17,24.75 19.5,25 20,24 Z M 16,25 15.25,25.75 15,28 16,28.5 17,28 16.75,25.75 Z"/>
 <path style="fill:#4f4f4f" d="M 16,6 14,9 15.25,21.25 16,22 16.75,21.25 18,9 Z M 12.5,22 12,23 12.5,24 15,23.75 15.5,23 15,22.25 Z M 19.5,22 17,22.25 16.5,23 17,23.75 19.5,24 20,23 Z M 16,24 15.25,24.75 15,27 16,27.5 17,27 16.75,24.75 Z"/>
 <path style="fill:#ffffff;opacity:0.1" d="M 16 6 L 14 9 L 14.088 9.8672 L 16 7 L 17.912 9.8672 L 18 9 L 16 6 z M 12.5 22 L 12 23 L 12.25 23.5 L 12.5 23 L 15 23.25 L 15.166 23.5 L 15.5 23 L 15 22.25 L 12.5 22 z M 19.5 22 L 17 22.25 L 16.5 23 L 16.834 23.5 L 17 23.25 L 19.5 23 L 19.75 23.5 L 20 23 L 19.5 22 z M 16 24 L 15.25 24.75 L 15 27 L 15.105 27.053 L 15.25 25.75 L 16 25 L 16.75 25.75 L 16.895 27.053 L 17 27 L 16.75 24.75 L 16 24 z"/>
</svg>
